en/guide/_images/no.svg

<svg width="24" height="24" viewBox="0 0 24 24" fill="none" xmlns="http://www.w3.org/2000/svg">
<path d="M17.7802 7.70705C18.1767 7.31758 18.1795 6.67955 17.7866 6.28656L17.7134 6.21344C17.3205 5.82045 16.6824 5.8233 16.2929 6.21978L12 10.59L7.70705 6.21978C7.31758 5.8233 6.67955 5.82045 6.28656 6.21344L6.21344 6.28656C5.82045 6.67955 5.8233 7.31758 6.21978 7.70705L10.59 12L6.21978 16.2929C5.8233 16.6824 5.82045 17.3205 6.21344 17.7134L6.28656 17.7866C6.67955 18.1795 7.31758 18.1767 7.70705 17.7802L12 13.41L16.2929 17.7802C16.6824 18.1767 17.3205 18.1795 17.7134 17.7866L17.7866 17.7134C18.1795 17.3205 18.1767 16.6824 17.7802 16.2929L13.41 12L17.7802 7.70705Z" fill="black"/>
</svg>

<svg xmlns="http://www.w3.org/2000/svg" width="24" height="24" fill="none" viewBox="0 0 24 24"><path fill="#000" d="M17.78 7.707a1 1 0 0 0 .007-1.42l-.074-.074a1 1 0 0 0-1.42.007L12 10.59 7.707 6.22a1 1 0 0 0-1.42-.007l-.074.074a1 1 0 0 0 .007 1.42L10.59 12l-4.37 4.293a1 1 0 0 0-.007 1.42l.074.074a1 1 0 0 0 1.42-.007L12 13.41l4.293 4.37a1 1 0 0 0 1.42.007l.074-.074a1 1 0 0 0-.007-1.42L13.41 12l4.37-4.293Z"/></svg>
